X: 4689
T: Boys From Chicago, The
R: reel
M: 4/4
K: Edorian
GA|B2 ed BAGA|BAGF EDB,D|EFGA Beef|edBG A2 GA|
B2 ed BAGA|BAGF EDB,D|EFGA Bgfd|edBG E2:|
(3Bcd|e2 fe Befe|dA A/A/A dfaf|(3gag fg edBA|Bgfg efga|beed egfe|
dA A/A/A dfaf|1 (3gag fg edBA|Bgfg e2:|2 (3gag fg ed (3Bcd|edBG E2||

